src/img/textblock-logo.svg

<svg xmlns="http://www.w3.org/2000/svg" preserveAspectRatio="none" viewBox="0 0 105 151"><defs/><path fill="none" stroke="#E7DDFF" stroke-linecap="round" stroke-linejoin="round" stroke-width="10" d="M73.5 61.5l13.3.4Q100 63.9 100 72T84.2 82.7l-15.8 1M37 84q-8.1.4-16.1-.9Q4.8 80.6 5 72.5q.3-8.1 15.2-10.8 7.4-1.4 14.8-1.2"/><path fill="none" stroke="#9279BA" stroke-linecap="round" stroke-linejoin="round" stroke-width="10" d="M68.4 83.7l3.8 9.5.33.85q4.07 11 6.57 20.25 8.5 30.8-3.1 31.7-11.6.9-18.2-23.2-2.1-7.6-3.4-16.7l-.9-7.6M35 60.5q-6-12.9-9.9-26.1-7.9-26.6 2.4-28.5Q37.8 4 46.4 27.3 50.8 39 53 51"/><path fill="none" stroke="#B9A5E2" stroke-linecap="round" stroke-linejoin="round" stroke-width="10" d="M53.5 98.5l-7.6 24q-9.6 23.7-19.5 22.3-9.9-1.4-.7-31.3L37 84m16-33q3.7-12.6 8.9-24.6 10.4-24 17.8-21.1 7.4 2.9 1.3 29.9-1.05 4.7-2.3 9.35-2.28 8.58-5.2 16.95"/></svg>

<svg xmlns="http://www.w3.org/2000/svg" version="1.1" xmlns:xlink="http://www.w3.org/1999/xlink" preserveAspectRatio="none" x="0px" y="0px" width="105px" height="151px" viewBox="0 0 105 151">
<defs/>

<g id="Layer_1">
<g>
<g>
<path stroke="#9279BA" stroke-width="10" stroke-linejoin="round" stroke-linecap="round" fill="none" d="
M 68.4 83.7
L 72.2 93.2
Q 72.359375 93.6263671875 72.525 94.05 76.596484375 105.0560546875 79.1 114.3 87.6 145.1 76 146 64.4 146.9 57.8 122.8 55.7 115.2 54.4 106.1
L 53.5 98.5
M 35 60.5
Q 29 47.6 25.1 34.4 17.2 7.8 27.5 5.9 37.8 4 46.4 27.3 50.8 39 53 51"/>
</g>

<g>
<path stroke="#D1C1F2" stroke-width="10" stroke-linejoin="round" stroke-linecap="round" fill="none" d="
M 73.5 61.5
L 86.8 61.9
Q 100 63.9 100 72 100 80.1 84.2 82.7
L 68.4 83.7
M 37 84
Q 28.9 84.4 20.9 83.1 4.8 80.6 5 72.5 5.3 64.4 20.2 61.7 27.6 60.3 35 60.5"/>
</g>

<g>
<path stroke="#B9A5E2" stroke-width="10" stroke-linejoin="round" stroke-linecap="round" fill="none" d="
M 53.5 98.5
L 45.9 122.5
Q 36.3 146.2 26.4 144.8 16.5 143.4 25.7 113.5
L 37 84
M 53 51
Q 56.7 38.4 61.9 26.4 72.3 2.4 79.7 5.3 87.1 8.2 81 35.2 79.946484375 39.905859375 78.7 44.55 76.4197265625 53.1302734375 73.5 61.5"/>
</g>
</g>
</g>
</svg>
